X:0651
M:2/4
L:1/8
Q:1/4=104
K:D
E|F2FD|G>FGE|F2FD|E2 zA|F>FFD|G>GGB|AGFE |D3|]

